client/gadgets/depth/depth_selected.svg

<svg width="23" height="22" viewBox="0 0 23 22" xmlns="http://www.w3.org/2000/svg"><title>depth-selected</title><g fill="none" fill-rule="evenodd"><path d="M0 0h23v2H0V0zm0 2h1v18H0V2z" fill="#000"/><path d="M0 20h23v2H0v-2zM22 2h1v18h-1V2z" fill="#FFF"/><path d="M15 8V4H4v10h4v4h11V8h-4z" fill="#000"/><path fill="#AAA" d="M9 10h9v6H9z"/><path fill="#000" d="M14 10h1v2h-1z"/><path d="M5 6h3v6H5V6zm3 0h6v2H8V6z" fill="#AAA"/><path fill="#000" d="M9 12h6v2H9z"/></g></svg>

<?xml version="1.0" encoding="UTF-8"?>
<svg width="23px" height="22px" viewBox="0 0 23 22" version="1.1" xmlns="http://www.w3.org/2000/svg" xmlns:xlink="http://www.w3.org/1999/xlink">
    <!-- Generator: Sketch 42 (36781) - http://www.bohemiancoding.com/sketch -->
    <title>depth-selected</title>
    <desc>Created with Sketch.</desc>
    <defs></defs>
    <g id="Symbols" stroke="none" stroke-width="1" fill="none" fill-rule="evenodd">
        <g id="depth-selected">
            <g id="depth-active">
                <path d="M0,0 L23,0 L23,2 L0,2 L0,0 Z M0,2 L1,2 L1,20 L0,20 L0,2 Z" id="Combined-Shape" fill="#000000"></path>
                <path d="M0,20 L23,20 L23,22 L0,22 L0,20 Z M22,2 L23,2 L23,20 L22,20 L22,2 Z" id="Combined-Shape" fill="#FFFFFF"></path>
                <path d="M15,8 L15,4 L4,4 L4,14 L8,14 L8,18 L19,18 L19,8 L15,8 Z" id="Combined-Shape" fill="#000000"></path>
                <rect id="Rectangle-25" fill="#AAAAAA" x="9" y="10" width="9" height="6"></rect>
                <rect id="Rectangle-7" fill="#000000" x="14" y="10" width="1" height="2"></rect>
                <path d="M5,6 L8,6 L8,12 L5,12 L5,6 Z M8,6 L14,6 L14,8 L8,8 L8,6 Z" id="Combined-Shape" fill="#AAAAAA"></path>
                <rect id="Rectangle" fill="#000000" x="9" y="12" width="6" height="2"></rect>
            </g>
        </g>
    </g>
</svg>
